material/.icons/material/map-minus.svg

<svg xmlns="http://www.w3.org/2000/svg" viewBox="0 0 24 24"><path d="M9 3L3.36 4.9c-.2.07-.36.25-.36.48V20.5a.5.5 0 00.5.5c.05 0 .1 0 .16-.03L9 18.9l4 1.4v-2l-4-1.4V5l6 2.1V16h6V3.5a.5.5 0 00-.5-.5h-.16L15 5.1 9 3m6 15v2h8v-2h-8z"/></svg>

<?xml version="1.0" encoding="UTF-8"?><!DOCTYPE svg PUBLIC "-//W3C//DTD SVG 1.1//EN" "http://www.w3.org/Graphics/SVG/1.1/DTD/svg11.dtd"><svg xmlns="http://www.w3.org/2000/svg" xmlns:xlink="http://www.w3.org/1999/xlink" version="1.1" id="mdi-map-minus" width="24" height="24" viewBox="0 0 24 24"><path d="M9,3L3.36,4.9C3.16,4.97 3,5.15 3,5.38V20.5A0.5,0.5 0 0,0 3.5,21C3.55,21 3.6,21 3.66,20.97L9,18.9L13,20.3V18.3L9,16.9V5L15,7.1V16H21V3.5A0.5,0.5 0 0,0 20.5,3H20.34L15,5.1L9,3M15,18V20H23V18H15Z" /></svg>
